X:1
T:We Three Kings of Orient Are
T:We Three Kings of Orient Are
T:from Hark! A Christmas Sampler
T:John H. Hopkins, Jr.
T:arr. Adam Stemple
T:1991
C:John H. Hopkins, Jr.
Z:arr. Adam Stemple
Z:1991
%%score { ( 1 3 ) | 2 }
L:1/8
Q:1/8=120
M:3/8
K:G
V:1 treble nm="Piano" snm="Pno."
V:3 treble 
V:2 bass 
V:1
"Em""^Mysteriously" [GB]2 [FA] | [EG]2 E |"B7" FGF |"Em" E2 z | [GB]2 [FA] | [EG]2 E |"B7" FGF | %7
w: We three|kings of|Or- i- ent|are,|Bear- ing|gifts we|tra- verse a-|
"Em" E2 z |"G" [B,DG]2 [B,DG] |"D" [DFA]2 [DFA] |"G" [DGB]2 [GB] |"D" [Bd][Ac][GB] | %12
w: far,|Field and|foun- tain,|Moor and|moun- * tain,|
"B7" [FA][GB][FA] |"B+" [B,G]2 F |"Em" [B,E]2 z |"B7" (!fermata![^DF]2 !fermata!A) |"G" [B,G]2 G | %17
w: Fol- low- ing|yon- der|star.|O _|star of|
 [B,G]2 D |"C" [CG]2 E |"G" [B,G]2 z |"C" [EG]2 G | [DG]2 D |"C" [CG]2 E |"G" [B,DG]2 z | %24
w: won- der|star of|night,|Star with|roy- al|beau- ty|bright,|
"G" [B,G]2 G | [DA]2 B |"C" [Ec]2 B |"D" [FA]2 B |"G" [B,G]2 G |"C" [CG]2 D | [CEG]2 [CE] | %31
w: West- ward|lead- ing,|still pro-|ceed- ing|Guide us|to thy|per- fect|
"G" [B,DG]3 |] %32
w: light.|
V:2
 E,, E,2 | B,,E,^A,, | B,, B,,,2 | E,,(B,,/A,,/G,,/F,,/) | E,, E,2 | B,,E,^A,, | B,,B,,,^D,, | %7
 E,,(B,,/A,,/E,,/F,,/) | (G,,B,,D,) | (A,,D,F,) | (B,,D,G,) | (D,F,G,) | (A,G,F,) | (^D,B,,^D,,) | %14
 E,,(E,,/F,,/G,,/A,,/) | !fermata!B,,2 z | (G,,D,G,) | (F,D,B,,) | (E,C,G,,) | (D,B,,G,,) | %20
 (C,,G,,C,) | (B,,D,G,,) | A,, E,,2 | G,,2 z | (G,,D,G,) | (F,A,,D,) | (C,G,,E,,) | (D,,A,,D,) | %28
 (G,,D,G,) | (E,D,B,,) | (C,G,,E,,) | [G,,D,]3 |] %32
V:3
 x3 | x3 | ^D3 | x3 | x3 | x3 | ^D3 | x3 | x3 | x3 | x3 | x3 | x3 | x3 | x3 | x3 | x3 | x3 | x3 | %19
 x3 | x3 | x3 | x3 | x3 | x3 | x3 | x3 | x3 | x3 | x3 | x3 | x3 |] %32

